X: 21
T: Congress, The
C: Joe Mills
Z: RheaP
S: https://thesession.org/tunes/208#setting46633
R: reel
M: 4/4
L: 1/8
K: Edor
BEED EFGA|Beec dBAd|BEED EFGE|FDDC DEFA|
BEED EFGA|Beec dBAF|~G3 A (3Bcd BA|GAFG E2(3FGA|
BEED EFGA|Beec dBAd|BE E2 DE E2|FDDC DEFA|
BEED EFGA|Beec dBAF|G3A B3A|GEFD E2(3FGA|
|:Beed e2ed|Bd~d2 dBAd|BdAd BdAd|Beec dBAd|
Beed e2ed|Bd~d2 dBAF|~G3A BdBA|GEFD E2:|

